public/icons/icons.svg

<?xml version="1.0" encoding="UTF-8"?>
<!-- This file is auto-generated from icons folder -->
<svg xmlns="http://www.w3.org/2000/svg" xmlns:xlink="http://www.w3.org/1999/xlink" width="0" height="0">
<defs>
<symbol viewBox="0 0 16 16" fill="none" id="Comment"><path d="M1 11.018V2.29194C1 2.13592 1.07042 1.9799 1.21125 1.82388C1.35208 1.66785 1.49833 1.58984 1.65 1.58984H10.0837C10.2463 1.58984 10.3979 1.66507 10.5387 1.81552C10.6796 1.96597 10.75 2.12478 10.75 2.29194V8.24308C10.75 8.3991 10.6796 8.55512 10.5387 8.71115C10.3979 8.86717 10.2463 8.94518 10.0837 8.94518H3.6L1.4225 11.1852C1.34667 11.2632 1.25729 11.2827 1.15437 11.2437C1.05146 11.2047 1 11.1295 1 11.018ZM4.26625 12.2885C4.11458 12.2885 3.96563 12.2105 3.81938 12.0545C3.67313 11.8985 3.6 11.7424 3.6 11.5864V9.94818H11.725V4.26451H13.35C13.5017 4.26451 13.6479 4.34252 13.7887 4.49854C13.9296 4.65457 14 4.81616 14 4.98333V14.3447C14 14.4561 13.9485 14.5313 13.8456 14.5703C13.7427 14.6093 13.6533 14.5898 13.5775 14.5118L11.4162 12.2885H4.26625ZM9.775 2.59284H1.975V7.94218H9.775V2.59284Z" fill="#485F7D"></path></symbol>
<symbol viewBox="0 0 25 24" fill="none" id="Vote"><path d="M18.7349 17.8362C18.5635 17.8362 18.4218 17.7801 18.3098 17.6681C18.1977 17.556 18.1417 17.4143 18.1417 17.2429V14.3955C18.1417 13.6836 17.8912 13.0772 17.3903 12.5763C16.8893 12.0753 16.2829 11.8249 15.5711 11.8249H7.34507L9.99479 14.4746C10.1003 14.58 10.153 14.7119 10.153 14.8701C10.153 15.0282 10.0937 15.1667 9.97502 15.2853C9.85637 15.404 9.71796 15.4633 9.55976 15.4633C9.40157 15.4633 9.26315 15.404 9.14451 15.2853L5.50609 11.6469C5.44018 11.581 5.39404 11.5151 5.36767 11.4492C5.34131 11.3832 5.32812 11.3107 5.32812 11.2316C5.32812 11.1525 5.34131 11.08 5.36767 11.0141C5.39404 10.9482 5.44018 10.8823 5.50609 10.8164L9.16428 7.15819C9.26974 7.05273 9.40157 7 9.55976 7C9.71796 7 9.85637 7.05932 9.97502 7.17797C10.0937 7.29661 10.153 7.43503 10.153 7.59322C10.153 7.75141 10.0937 7.88983 9.97502 8.00847L7.34507 10.6384H15.5711C16.5993 10.6384 17.4826 11.0042 18.2208 11.7359C18.959 12.4675 19.3281 13.354 19.3281 14.3955V17.2429C19.3281 17.4143 19.2721 17.556 19.16 17.6681C19.048 17.7801 18.9063 17.8362 18.7349 17.8362Z" fill="#485F7D" fill-opacity="0.8"></path></symbol>
<symbol viewBox="0 0 14 14" fill="none" id="beneficiary-icon"><path fill-rule="evenodd" clip-rule="evenodd" d="M12.6795 9.81166C12.2361 8.40582 11.0461 7.60082 9.41279 7.60082H9.38945C8.67195 7.60082 8.04779 7.75832 7.52279 8.04416C8.84112 8.52249 9.82112 9.50832 10.2761 10.8792C11.1453 10.7858 11.9095 10.5408 12.5511 10.15L12.7495 10.0275L12.6795 9.81166Z" fill="#485F7D"></path><path fill-rule="evenodd" clip-rule="evenodd" d="M8.14112 6.41083C8.49695 6.66166 8.93445 6.81332 9.40112 6.81332C10.6028 6.81332 11.5828 5.83332 11.5828 4.62582C11.5828 3.42416 10.6028 2.44416 9.40112 2.44416C9.06278 2.44416 8.74779 2.51999 8.46195 2.65999C8.73612 3.14416 8.89362 3.70416 8.89362 4.29916C8.89362 5.09833 8.61362 5.83332 8.14112 6.41083Z" fill="#485F7D"></path><path fill-rule="evenodd" clip-rule="evenodd" d="M9.67529 10.92C9.21445 9.66582 8.25779 8.81416 6.95112 8.46999C6.52529 8.35332 6.05279 8.29499 5.55112 8.29499H5.52195C3.42195 8.29499 1.89362 9.32749 1.32195 11.13L1.25195 11.3458L1.45029 11.4625C2.55862 12.145 3.88862 12.4717 5.50445 12.4717H5.53362C7.19029 12.4775 8.50862 12.145 9.62279 11.4625L9.82112 11.3458L9.75112 11.13C9.72779 11.06 9.70445 10.99 9.67529 10.92Z" fill="#485F7D"></path><path fill-rule="evenodd" clip-rule="evenodd" d="M5.5336 7.07582C6.42027 7.07582 7.20777 6.65582 7.71527 6.00832C8.0886 5.54165 8.31027 4.94665 8.31027 4.29915C8.31027 3.82082 8.18777 3.37165 7.97777 2.98082C7.50527 2.11749 6.58943 1.52832 5.5336 1.52832C4.00527 1.52832 2.76277 2.77082 2.76277 4.29915C2.76277 5.82749 4.00527 7.07582 5.5336 7.07582Z" fill="#485F7D"></path></symbol>
<symbol viewBox="0 0 24 24" fill="none" id="login-to-pa-icon"><path d="M12.225 21V19.5H19.5V4.5H12.225V3H19.5C19.9 3 20.25 3.15 20.55 3.45C20.85 3.75 21 4.1 21 4.5V19.5C21 19.9 20.85 20.25 20.55 20.55C20.25 20.85 19.9 21 19.5 21H12.225ZM10.275 16.375L9.2 15.3L11.75 12.75H3V11.25H11.7L9.15 8.7L10.225 7.625L14.625 12.025L10.275 16.375Z" fill="#243A57"></path></symbol>
<symbol viewBox="0 0 24 24" fill="#D22B2B" class="w-6 h-6" id="minus-circle-red"><path fill-rule="evenodd" d="M12 2.25c-5.385 0-9.75 4.365-9.75 9.75s4.365 9.75 9.75 9.75 9.75-4.365 9.75-9.75S17.385 2.25 12 2.25zm3 10.5a.75.75 0 000-1.5H9a.75.75 0 000 1.5h6z" clip-rule="evenodd"></path></symbol>
<symbol viewBox="0 0 24 24" fill="#4b5f71" id="profile-subscan"><path opacity="0.4" d="M10.8597 1.74035C11.4893 1.11077 12.5101 1.11077 13.1397 1.74035C13.7693 2.36993 13.7693 3.39069 13.1397 4.02027L5.53993 11.62C5.33007 11.8299 5.33007 12.1701 5.53993 12.38L7.05988 13.8999C7.26974 14.1098 7.60999 14.1098 7.81985 13.8999L15.4196 6.30019C16.0492 5.67061 17.0699 5.67061 17.6995 6.30019L22.363 10.9637C22.9353 11.536 22.9353 12.464 22.363 13.0363L13.1397 22.2597C12.5101 22.8892 11.4893 22.8892 10.8597 22.2597C10.2302 21.6301 10.2302 20.6093 10.8597 19.9797L18.4595 12.38C18.6694 12.1701 18.6694 11.8299 18.4595 11.62L16.9395 10.1001C16.7297 9.8902 16.3894 9.8902 16.1796 10.1001L8.57983 17.6998C7.95024 18.3294 6.92949 18.3294 6.2999 17.6998L1.63643 13.0363C1.06408 12.464 1.06408 11.536 1.63643 10.9637L10.8597 1.74035Z"></path><path d="M4.01998 10.86C4.64956 11.4896 4.64956 12.5104 4.01998 13.14C3.3904 13.7695 2.36964 13.7695 1.74006 13.14C1.11048 12.5104 1.11048 11.4896 1.74006 10.86C2.36964 10.2305 3.3904 10.2305 4.01998 10.86Z"></path><path d="M13.1397 1.74035C13.7693 2.36993 13.7693 3.39069 13.1397 4.02027C12.5101 4.64985 11.4893 4.64985 10.8597 4.02027C10.2302 3.39069 10.2302 2.36993 10.8597 1.74035C11.4893 1.11077 12.5101 1.11077 13.1397 1.74035Z"></path><path d="M17.6995 6.30019C18.3291 6.92978 18.3291 7.95053 17.6995 8.58012C17.0699 9.2097 16.0492 9.2097 15.4196 8.58012C14.79 7.95053 14.79 6.92978 15.4196 6.30019C16.0492 5.67061 17.0699 5.67061 17.6995 6.30019Z"></path><path d="M13.1397 10.86C13.7693 11.4896 13.7693 12.5104 13.1397 13.14C12.5101 13.7695 11.4893 13.7695 10.8597 13.14C10.2302 12.5104 10.2302 11.4896 10.8597 10.86C11.4893 10.2305 12.5101 10.2305 13.1397 10.86Z"></path><path d="M8.57983 6.30019C9.20941 6.92978 9.20941 7.95053 8.57983 8.58012C7.95024 9.2097 6.92949 9.2097 6.2999 8.58012C5.67032 7.95053 5.67032 6.92978 6.2999 6.30019C6.92949 5.67061 7.95024 5.67061 8.57983 6.30019Z"></path><path d="M8.57983 15.4199C9.20941 16.0495 9.20941 17.0702 8.57983 17.6998C7.95024 18.3294 6.92949 18.3294 6.2999 17.6998C5.67032 17.0702 5.67032 16.0495 6.2999 15.4199C6.92949 14.7903 7.95024 14.7903 8.57983 15.4199Z"></path><path d="M13.1397 19.9797C13.7693 20.6093 13.7693 21.6301 13.1397 22.2597C12.5101 22.8892 11.4893 22.8892 10.8597 22.2597C10.2302 21.6301 10.2302 20.6093 10.8597 19.9797C11.4893 19.3501 12.5101 19.3501 13.1397 19.9797Z"></path><path d="M17.6995 15.4199C18.3291 16.0495 18.3291 17.0702 17.6995 17.6998C17.0699 18.3294 16.0492 18.3294 15.4196 17.6998C14.79 17.0702 14.79 16.0495 15.4196 15.4199C16.0492 14.7903 17.0699 14.7903 17.6995 15.4199Z"></path><path d="M22.2594 10.86C22.8889 11.4896 22.8889 12.5104 22.2594 13.14C21.6298 13.7695 20.609 13.7695 19.9794 13.14C19.3499 12.5104 19.3499 11.4896 19.9794 10.86C20.609 10.2305 21.6298 10.2305 22.2594 10.86Z"></path></symbol>
<symbol viewBox="0 0 24 24" fill="none" id="timeline-referenda-icon"><path d="M19.1998 3H4.80021C4.32299 3.00074 3.86554 3.19062 3.52809 3.52803C3.19065 3.86543 3.00074 4.32284 3 4.8V19.1979C3 19.6755 3.1896 20.1335 3.52714 20.4714C3.86469 20.8093 4.32257 20.9994 4.80021 21H19.1998C19.6771 20.9994 20.1346 20.8096 20.4721 20.4722C20.8096 20.1347 20.9994 19.6772 21 19.2V4.8C20.9993 4.32284 20.8094 3.86543 20.4719 3.52803C20.1345 3.19062 19.677 3.00074 19.1998 3ZM5.36137 19.4531C5.14428 19.4531 4.93608 19.3669 4.78258 19.2134C4.62908 19.0599 4.54284 18.8518 4.54284 18.6347V5.36109C4.54284 5.14403 4.62908 4.93586 4.78258 4.78237C4.93608 4.62888 5.14428 4.54266 5.36137 4.54266H18.6386C18.8554 4.54321 19.063 4.62969 19.2161 4.78312C19.3691 4.93654 19.4551 5.1444 19.4551 5.36109V18.6368C19.4545 18.8531 19.3683 19.0604 19.2153 19.2134C19.0623 19.3664 18.855 19.4526 18.6386 19.4531H5.36137Z" fill="#E5007A"></path><path d="M8.09263 14.3688V15.6886C8.09235 15.7172 8.09777 15.7456 8.10859 15.7721C8.11941 15.7986 8.13541 15.8226 8.15564 15.8429C8.17588 15.8631 8.19994 15.8791 8.22643 15.8899C8.25292 15.9007 8.28131 15.9061 8.30992 15.9059H9.62984C9.65832 15.9062 9.68655 15.9005 9.71271 15.8892C9.73887 15.878 9.76239 15.8614 9.78173 15.8405L14.5213 11.1056L12.8934 9.47789L8.15803 14.2127C8.13694 14.2328 8.12024 14.2571 8.10898 14.2839C8.09773 14.3108 8.09216 14.3397 8.09263 14.3688ZM15.7801 9.84703C15.8204 9.80686 15.8524 9.75914 15.8742 9.70659C15.896 9.65404 15.9072 9.59771 15.9072 9.54082C15.9072 9.48393 15.896 9.4276 15.8742 9.37505C15.8524 9.3225 15.8204 9.27478 15.7801 9.23461L14.7647 8.2193C14.7245 8.17901 14.6768 8.14705 14.6242 8.12524C14.5717 8.10343 14.5153 8.0922 14.4584 8.0922C14.4015 8.0922 14.3452 8.10343 14.2926 8.12524C14.2401 8.14705 14.1923 8.17901 14.1522 8.2193L13.3582 9.01383L14.9855 10.6409L15.7801 9.84703Z" fill="#E5007A"></path></symbol>
<symbol data-name="86977684-12db-4850-8f30-233a7c267d11" viewBox="0 0 2000 2000" id="usdc"><path d="M1000 2000c554.17 0 1000-445.83 1000-1000S1554.17 0 1000 0 0 445.83 0 1000s445.83 1000 1000 1000z" fill="#2775ca"></path><path d="M1275 1158.33c0-145.83-87.5-195.83-262.5-216.66-125-16.67-150-50-150-108.34s41.67-95.83 125-95.83c75 0 116.67 25 137.5 87.5 4.17 12.5 16.67 20.83 29.17 20.83h66.66c16.67 0 29.17-12.5 29.17-29.16v-4.17c-16.67-91.67-91.67-162.5-187.5-170.83v-100c0-16.67-12.5-29.17-33.33-33.34h-62.5c-16.67 0-29.17 12.5-33.34 33.34v95.83c-125 16.67-204.16 100-204.16 204.17 0 137.5 83.33 191.66 258.33 212.5 116.67 20.83 154.17 45.83 154.17 112.5s-58.34 112.5-137.5 112.5c-108.34 0-145.84-45.84-158.34-108.34-4.16-16.66-16.66-25-29.16-25h-70.84c-16.66 0-29.16 12.5-29.16 29.17v4.17c16.66 104.16 83.33 179.16 220.83 200v100c0 16.66 12.5 29.16 33.33 33.33h62.5c16.67 0 29.17-12.5 33.34-33.33v-100c125-20.84 208.33-108.34 208.33-220.84z" fill="#fff"></path><path d="M787.5 1595.83c-325-116.66-491.67-479.16-370.83-800 62.5-175 200-308.33 370.83-370.83 16.67-8.33 25-20.83 25-41.67V325c0-16.67-8.33-29.17-25-33.33-4.17 0-12.5 0-16.67 4.16-395.83 125-612.5 545.84-487.5 941.67 75 233.33 254.17 412.5 487.5 487.5 16.67 8.33 33.34 0 37.5-16.67 4.17-4.16 4.17-8.33 4.17-16.66v-58.34c0-12.5-12.5-29.16-25-37.5zM1229.17 295.83c-16.67-8.33-33.34 0-37.5 16.67-4.17 4.17-4.17 8.33-4.17 16.67v58.33c0 16.67 12.5 33.33 25 41.67 325 116.66 491.67 479.16 370.83 800-62.5 175-200 308.33-370.83 370.83-16.67 8.33-25 20.83-25 41.67V1700c0 16.67 8.33 29.17 25 33.33 4.17 0 12.5 0 16.67-4.16 395.83-125 612.5-545.84 487.5-941.67-75-237.5-258.34-416.67-487.5-491.67z" fill="#fff"></path></symbol>
<symbol id="usdt" data-name="Layer 1" viewBox="0 0 339.43 295.27"><path d="M62.15,1.45l-61.89,130a2.52,2.52,0,0,0,.54,2.94L167.95,294.56a2.55,2.55,0,0,0,3.53,0L338.63,134.4a2.52,2.52,0,0,0,.54-2.94l-61.89-130A2.5,2.5,0,0,0,275,0H64.45a2.5,2.5,0,0,0-2.3,1.45h0Z" style="fill:#50af95;fill-rule:evenodd"></path><path d="M191.19,144.8v0c-1.2.09-7.4,0.46-21.23,0.46-11,0-18.81-.33-21.55-0.46v0c-42.51-1.87-74.24-9.27-74.24-18.13s31.73-16.25,74.24-18.15v28.91c2.78,0.2,10.74.67,21.74,0.67,13.2,0,19.81-.55,21-0.66v-28.9c42.42,1.89,74.08,9.29,74.08,18.13s-31.65,16.24-74.08,18.12h0Zm0-39.25V79.68h59.2V40.23H89.21V79.68H148.4v25.86c-48.11,2.21-84.29,11.74-84.29,23.16s36.18,20.94,84.29,23.16v82.9h42.78V151.83c48-2.21,84.12-11.73,84.12-23.14s-36.09-20.93-84.12-23.15h0Zm0,0h0Z" style="fill:#fff;fill-rule:evenodd"></path></symbol>
<symbol viewBox="0 0 20 19" fill="none" id="verified-check-green"><path d="M20 9.5L17.7818 6.97571L18.0909 3.63714L14.8091 2.89524L13.0909 0L10 1.32095L6.90909 0L5.19091 2.88619L1.90909 3.61905L2.21818 6.96667L0 9.5L2.21818 12.0243L1.90909 15.3719L5.19091 16.1138L6.90909 19L10 17.67L13.0909 18.991L14.8091 16.1048L18.0909 15.3629L17.7818 12.0243L20 9.5ZM7.61818 13.1281L5.45455 10.9567C5.1 10.6038 5.1 10.0338 5.45455 9.68095L5.51818 9.61762C5.87273 9.26476 6.45455 9.26476 6.80909 9.61762L8.27273 11.0833L12.9545 6.41476C13.3091 6.0619 13.8909 6.0619 14.2455 6.41476L14.3091 6.4781C14.6636 6.83095 14.6636 7.40095 14.3091 7.75381L8.92727 13.1281C8.55455 13.481 7.98182 13.481 7.61818 13.1281Z" fill="#51D36E"></path></symbol>
</defs>
</svg>

<?xml version="1.0" encoding="UTF-8"?>
<!-- This file is auto-generated from icons folder -->
<svg xmlns="http://www.w3.org/2000/svg" xmlns:xlink="http://www.w3.org/1999/xlink" width="0" height="0">
<defs>
<symbol fill="none" viewBox="0 0 16 16" id="Comment"><path fill="#485F7D" d="M1 11.018V2.292q0-.234.211-.468t.439-.234h8.434q.243 0 .455.226.21.225.211.476v5.951q0 .234-.211.468-.212.234-.455.234H3.6l-2.177 2.24a.23.23 0 0 1-.269.059.22.22 0 0 1-.154-.226m3.266 1.27q-.226 0-.447-.233-.219-.235-.219-.469V9.948h8.125V4.265h1.625q.228 0 .439.234.21.234.211.484v9.362a.22.22 0 0 1-.154.225.23.23 0 0 1-.268-.058l-2.162-2.223zm5.509-9.695h-7.8v5.35h7.8z"></path></symbol>
<symbol fill="none" viewBox="0 0 25 24" id="Vote"><path fill="#485F7D" fill-opacity=".8" d="M18.735 17.836a.576.576 0 0 1-.593-.593v-2.847q0-1.068-.752-1.82a2.48 2.48 0 0 0-1.819-.751H7.345l2.65 2.65a.54.54 0 0 1 .158.395.57.57 0 0 1-.178.415.57.57 0 0 1-.415.178.57.57 0 0 1-.415-.178l-3.639-3.638a.6.6 0 0 1-.138-.198.6.6 0 0 1-.04-.217.6.6 0 0 1 .04-.218.6.6 0 0 1 .138-.198l3.658-3.658A.54.54 0 0 1 9.56 7a.57.57 0 0 1 .415.178.57.57 0 0 1 .178.415.57.57 0 0 1-.178.415l-2.63 2.63h8.226q1.542 0 2.65 1.098a3.6 3.6 0 0 1 1.107 2.66v2.847a.576.576 0 0 1-.593.593"></path></symbol>
<symbol fill="none" viewBox="0 0 14 14" id="beneficiary-icon"><path fill="#485F7D" fill-rule="evenodd" d="M12.68 9.812C12.236 8.406 11.046 7.6 9.413 7.6h-.024c-.717 0-1.341.157-1.866.443 1.318.478 2.298 1.464 2.753 2.835.87-.093 1.633-.338 2.275-.729l.198-.123zM8.141 6.41c.356.252.793.403 1.26.403 1.202 0 2.182-.98 2.182-2.187 0-1.202-.98-2.182-2.182-2.182-.338 0-.653.076-.939.216a3.3 3.3 0 0 1 .432 1.64c0 .798-.28 1.533-.753 2.11" clip-rule="evenodd"></path><path fill="#485F7D" fill-rule="evenodd" d="M9.675 10.92c-.46-1.254-1.417-2.106-2.724-2.45a5.3 5.3 0 0 0-1.4-.175h-.029c-2.1 0-3.628 1.032-4.2 2.835l-.07.216.198.117c1.109.682 2.439 1.009 4.054 1.009h.03c1.656.005 2.975-.327 4.089-1.01l.198-.116-.07-.216a3 3 0 0 0-.076-.21M5.534 7.076c.886 0 1.674-.42 2.181-1.068A2.73 2.73 0 0 0 8.31 4.3a2.8 2.8 0 0 0-.332-1.318 2.79 2.79 0 0 0-2.444-1.453 2.773 2.773 0 0 0 0 5.548z" clip-rule="evenodd"></path></symbol>
<symbol fill="none" viewBox="0 0 24 24" id="login-to-pa-icon"><path fill="#243A57" d="M12.225 21v-1.5H19.5v-15h-7.275V3H19.5q.6 0 1.05.45T21 4.5v15q0 .6-.45 1.05T19.5 21zm-1.95-4.625L9.2 15.3l2.55-2.55H3v-1.5h8.7L9.15 8.7l1.075-1.075 4.4 4.4z"></path></symbol>
<symbol fill="#D22B2B" class="w-6 h-6" viewBox="0 0 24 24" id="minus-circle-red"><path fill-rule="evenodd" d="M12 2.25c-5.385 0-9.75 4.365-9.75 9.75s4.365 9.75 9.75 9.75 9.75-4.365 9.75-9.75S17.385 2.25 12 2.25m3 10.5a.75.75 0 0 0 0-1.5H9a.75.75 0 0 0 0 1.5z" clip-rule="evenodd"></path></symbol>
<symbol fill="#4b5f71" viewBox="0 0 24 24" id="profile-subscan"><path d="M10.86 1.74a1.612 1.612 0 0 1 2.28 2.28l-7.6 7.6c-.21.21-.21.55 0 .76l1.52 1.52c.21.21.55.21.76 0l7.6-7.6c.63-.63 1.65-.63 2.28 0l4.663 4.664c.572.572.572 1.5 0 2.072L13.14 22.26a1.612 1.612 0 0 1-2.28-2.28l7.6-7.6c.21-.21.21-.55 0-.76l-1.52-1.52a.537.537 0 0 0-.76 0l-7.6 7.6c-.63.63-1.65.63-2.28 0l-4.664-4.664a1.466 1.466 0 0 1 0-2.072z" opacity=".4"></path><path d="M4.02 10.86a1.612 1.612 0 1 1-2.28 2.28 1.612 1.612 0 0 1 2.28-2.28m9.12-9.12a1.612 1.612 0 1 1-2.28 2.28 1.612 1.612 0 0 1 2.28-2.28M17.7 6.3a1.612 1.612 0 1 1-2.28 2.28A1.612 1.612 0 0 1 17.7 6.3m-4.56 4.56a1.612 1.612 0 1 1-2.28 2.28 1.612 1.612 0 0 1 2.28-2.28M8.58 6.3A1.612 1.612 0 1 1 6.3 8.58 1.612 1.612 0 0 1 8.58 6.3m0 9.12A1.612 1.612 0 1 1 6.3 17.7a1.612 1.612 0 0 1 2.28-2.28m4.56 4.56a1.612 1.612 0 1 1-2.28 2.28 1.612 1.612 0 0 1 2.28-2.28m4.56-4.56a1.612 1.612 0 1 1-2.28 2.28 1.612 1.612 0 0 1 2.28-2.28m4.56-4.56a1.612 1.612 0 1 1-2.281 2.28 1.612 1.612 0 0 1 2.28-2.28z"></path></symbol>
<symbol fill="none" viewBox="0 0 24 24" id="timeline-referenda-icon"><path fill="#E5007A" d="M19.2 3H4.8A1.803 1.803 0 0 0 3 4.8v14.398A1.8 1.8 0 0 0 4.8 21h14.4a1.803 1.803 0 0 0 1.8-1.8V4.8A1.8 1.8 0 0 0 19.2 3M5.36 19.453a.82.82 0 0 1-.818-.818V5.36a.82.82 0 0 1 .818-.818h13.28a.82.82 0 0 1 .816.818v13.276a.82.82 0 0 1-.816.816H5.36z"></path><path fill="#E5007A" d="M8.093 14.369v1.32a.215.215 0 0 0 .217.217h1.32a.2.2 0 0 0 .152-.066l4.74-4.734-1.629-1.628-4.735 4.735a.21.21 0 0 0-.065.156m7.687-4.522a.43.43 0 0 0 0-.612l-1.015-1.016a.43.43 0 0 0-.613 0l-.794.795 1.627 1.627z"></path></symbol>
<symbol data-name="86977684-12db-4850-8f30-233a7c267d11" viewBox="0 0 2000 2000" id="usdc"><path fill="#2775ca" d="M1000 2000c554.17 0 1000-445.83 1000-1000S1554.17 0 1000 0 0 445.83 0 1000s445.83 1000 1000 1000"></path><path fill="#fff" d="M1275 1158.33c0-145.83-87.5-195.83-262.5-216.66-125-16.67-150-50-150-108.34s41.67-95.83 125-95.83c75 0 116.67 25 137.5 87.5 4.17 12.5 16.67 20.83 29.17 20.83h66.66c16.67 0 29.17-12.5 29.17-29.16v-4.17c-16.67-91.67-91.67-162.5-187.5-170.83v-100c0-16.67-12.5-29.17-33.33-33.34h-62.5c-16.67 0-29.17 12.5-33.34 33.34v95.83c-125 16.67-204.16 100-204.16 204.17 0 137.5 83.33 191.66 258.33 212.5 116.67 20.83 154.17 45.83 154.17 112.5s-58.34 112.5-137.5 112.5c-108.34 0-145.84-45.84-158.34-108.34-4.16-16.66-16.66-25-29.16-25h-70.84c-16.66 0-29.16 12.5-29.16 29.17v4.17c16.66 104.16 83.33 179.16 220.83 200v100c0 16.66 12.5 29.16 33.33 33.33h62.5c16.67 0 29.17-12.5 33.34-33.33v-100c125-20.84 208.33-108.34 208.33-220.84"></path><path fill="#fff" d="M787.5 1595.83c-325-116.66-491.67-479.16-370.83-800 62.5-175 200-308.33 370.83-370.83 16.67-8.33 25-20.83 25-41.67V325c0-16.67-8.33-29.17-25-33.33-4.17 0-12.5 0-16.67 4.16-395.83 125-612.5 545.84-487.5 941.67 75 233.33 254.17 412.5 487.5 487.5 16.67 8.33 33.34 0 37.5-16.67 4.17-4.16 4.17-8.33 4.17-16.66v-58.34c0-12.5-12.5-29.16-25-37.5m441.67-1300c-16.67-8.33-33.34 0-37.5 16.67-4.17 4.17-4.17 8.33-4.17 16.67v58.33c0 16.67 12.5 33.33 25 41.67 325 116.66 491.67 479.16 370.83 800-62.5 175-200 308.33-370.83 370.83-16.67 8.33-25 20.83-25 41.67V1700c0 16.67 8.33 29.17 25 33.33 4.17 0 12.5 0 16.67-4.16 395.83-125 612.5-545.84 487.5-941.67-75-237.5-258.34-416.67-487.5-491.67"></path></symbol>
<symbol data-name="Layer 1" viewBox="0 0 339.43 295.27" id="usdt"><path fill="#50af95" fill-rule="evenodd" d="m62.15 1.45-61.89 130a2.52 2.52 0 0 0 .54 2.94l167.15 160.17a2.55 2.55 0 0 0 3.53 0L338.63 134.4a2.52 2.52 0 0 0 .54-2.94l-61.89-130A2.5 2.5 0 0 0 275 0H64.45a2.5 2.5 0 0 0-2.3 1.45"></path><path fill="#fff" fill-rule="evenodd" d="M191.19 144.8c-1.2.09-7.4.46-21.23.46-11 0-18.81-.33-21.55-.46-42.51-1.87-74.24-9.27-74.24-18.13s31.73-16.25 74.24-18.15v28.91c2.78.2 10.74.67 21.74.67 13.2 0 19.81-.55 21-.66v-28.9c42.42 1.89 74.08 9.29 74.08 18.13s-31.65 16.24-74.08 18.12zm0-39.25V79.68h59.2V40.23H89.21v39.45h59.19v25.86c-48.11 2.21-84.29 11.74-84.29 23.16s36.18 20.94 84.29 23.16v82.9h42.78v-82.93c48-2.21 84.12-11.73 84.12-23.14s-36.09-20.93-84.12-23.15zm0 0"></path></symbol>
<symbol fill="none" viewBox="0 0 20 19" id="verified-check-green"><path fill="#51D36E" d="m20 9.5-2.218-2.524.309-3.339-3.282-.742L13.091 0 10 1.321 6.91 0 5.19 2.886l-3.28.733.308 3.348L0 9.5l2.218 2.524-.309 3.348 3.282.742L6.909 19 10 17.67l3.09 1.321 1.72-2.886 3.28-.742-.308-3.339zM7.618 13.128l-2.163-2.171a.9.9 0 0 1 0-1.276l.063-.063a.92.92 0 0 1 1.291 0l1.464 1.465 4.681-4.668a.92.92 0 0 1 1.291 0l.064.063a.9.9 0 0 1 0 1.276l-5.382 5.374a.94.94 0 0 1-1.309 0"></path></symbol>
</defs>
</svg>
